X:1
T: The Lady Agnes Duff
C:William Marshall
R:Strathspey
Q: 128
K:F
M:4/4
L:1/16
|:a2|ff3 f3c AF3 F3a|ff3 f3c g4 g2a2|ff3 f3c df3 c3A|B3d c3e f4 f2a2|
ff3 f3c AF3 F3a|ff3 f3c g4 g2a2|ff3 f3c df3 c3A|B3d c3e f4 f2d2|
cF3 c3A F3c A3c|B3d Ac3 G3A B3c|cF3 c3A F3A c3A|Bc3 c3e f4 f2d2|
cF3 c3A F3c A3c|B3d Ac3 G3A B3c|AF3 G3A B3c d3B|c3f e3g f4 f2:|
